X: 8
T: The Humours Of Westmeath
R: slip jig
M: 9/8
L: 1/8
K: Dmaj
d>DD FDF AFA | d>DD FDf gfe | d>DD FDF AGF | (G/A/)B.G ECE GFE ||
d2g fdf ecA | d2g f/g/af gfe | d2g fdf ece | =cBc E2F GFE ||


Tune 428	Setting 22578

